img/oclif.svg

<svg class="fill-white" xmlns="http://www.w3.org/2000/svg" width="57" height="16" viewBox="0 0 57 16">
<path d="M35.3562857,0.408911325 C35.0941318,0.145351205 34.737862,-0.00189210772 34.3669286,1.83616382e-05 L1.38835714,1.83616382e-05 C0.621588666,1.83616382e-05 9.39020561e-17,0.624278929 0,1.39434337 L0,14.605675 C9.39020561e-17,15.3757394 0.621588666,16 1.38835714,16 L34.3669286,16 C34.737862,16.0019105 35.0941318,15.8546672 35.3562857,15.591107 L41.608963,9.00306702 C42.1397237,8.46059446 42.1397237,7.55581393 41.608963,7.01334137 L35.3562857,0.408911325 Z M24.9537857,4.4078845 C25.1185337,4.25237815 25.338587,4.1698718 25.5645,4.17890444 C25.7072641,4.18098639 25.8472361,4.21894127 25.9716429,4.28930554 C26.1010296,4.36009357 26.2103244,4.46282197 26.2892143,4.58779741 C26.3678208,4.70943738 26.4088967,4.85168734 26.4072857,4.99669037 C26.4096384,5.14179402 26.368501,5.28425687 26.2892143,5.40558333 C26.2096564,5.52894582 26.1004394,5.6301949 25.9716429,5.69998626 C25.7085465,5.84781812 25.387882,5.84781812 25.1247857,5.69998626 C24.9974445,5.63118465 24.8906426,5.52956895 24.8153571,5.40558333 C24.73884,5.28320045 24.6992456,5.14118393 24.7013571,4.99669037 C24.696653,4.77297538 24.788732,4.55819514 24.9537857,4.4078845 Z M8.79428571,11.2036855 C8.57193825,11.6401326 8.2355751,12.0076235 7.82121429,12.2668072 C6.98024764,12.7832877 5.9221095,12.7832877 5.08114286,12.2668072 C4.66828102,12.0070514 4.33337269,11.6396124 4.11214286,11.2036855 C3.86946793,10.7167389 3.74792697,10.1779763 3.75792857,9.63353657 C3.75197057,9.10816898 3.87651096,8.58959657 4.12028571,8.12472153 C4.34704894,7.68551952 4.68560033,7.31447491 5.1015,7.04933304 C5.9288204,6.52613461 6.9816796,6.52613461 7.809,7.04933304 C8.22489967,7.31447491 8.56345106,7.68551952 8.79021429,8.12472153 C9.03398904,8.58959657 9.15852943,9.10816898 9.15257143,9.63353657 C9.16114911,10.1782976 9.03821581,10.7170397 8.79428571,11.2036855 Z M14.6492462,8.62997437 C14.3110714,8.12881046 13.7438411,7.78071032 13.1181429,7.82214074 C12.8472245,7.81967153 12.5823607,7.9026185 12.3608571,8.05929866 C12.1232184,8.22058439 11.9322066,8.44203846 11.8071429,8.70126061 C11.668965,9.01666856 11.6008856,9.35852881 11.6076429,9.70304837 C11.6071,10.0232317 11.6751388,10.3397865 11.8071429,10.6312354 C11.9186557,10.8861635 12.1010153,11.1033801 12.3323571,11.2568416 C12.5616165,11.4049246 12.8293053,11.4817359 13.1018571,11.4776438 C13.3108813,11.4670291 13.4618807,11.4506774 13.5548553,11.4285889 C13.6301664,11.4106968 13.7315956,11.3670775 13.8591429,11.2977309 C14.1297651,11.1597692 14.3662482,10.9627843 14.5512857,10.7211918 L15.3411429,11.6371121 C15.058758,11.9658363 14.7068348,12.2270716 14.3110714,12.4017419 C13.9252832,12.5677304 13.5093236,12.6512799 13.0896429,12.6470777 C12.5758713,12.6553362 12.0694332,12.523944 11.6239286,12.2668072 C11.1925137,12.0129412 10.8400518,11.6433892 10.6060714,11.1995966 C10.3580581,10.7273404 10.2320644,10.2001099 10.2396429,9.666248 C10.2331078,9.13119908 10.3590212,8.60289986 10.6060714,8.12881046 C10.8396224,7.67937637 11.1917477,7.30310459 11.6239286,7.04115518 C12.0730103,6.76809198 12.589126,6.62647059 13.1140714,6.63226222 C13.5667534,6.62929377 14.0144724,6.72704237 14.4250714,6.91848729 C14.8149899,7.09581657 15.1477954,7.37906744 15.3859286,7.73627322 L14.6492462,8.62997437 Z M21.4360714,12.4712537 L16.9575,12.4712537 L16.9575,11.412221 L18.5127857,11.412221 L18.5127857,5.31562688 L17.043,5.31562688 L17.043,4.24023839 L19.893,4.24023839 L19.893,11.412221 L21.4360714,11.412221 L21.4360714,12.4712537 Z M27.5676429,12.4712537 L23.6142857,12.4712537 L23.6142857,11.3754206 L24.9782143,11.3754206 L24.9782143,7.87529683 L23.6712857,7.87529683 L23.6712857,6.77946369 L26.3258571,6.77946369 L26.3258571,11.3754206 L27.5472857,11.3754206 L27.5676429,12.4712537 Z M34.2447857,5.82265415 C34.0577892,5.64058907 33.8468257,5.48512573 33.6177857,5.36060511 C33.4353667,5.27627177 33.236358,5.23434224 33.0355714,5.23793722 C32.7185167,5.21534339 32.4084247,5.33870978 32.1927857,5.57322945 C31.9832136,5.85832602 31.8821216,6.20931781 31.9077857,6.56275042 L31.9077857,6.79581941 L33.6462857,6.79581941 L33.6462857,7.87938576 L31.9159286,7.87938576 L31.9159286,12.4712537 L30.5927143,12.4712537 L30.5927143,7.86303004 L29.3712857,7.86303004 L29.3712857,6.77946369 L30.5927143,6.77946369 L30.5927143,6.54230577 C30.5793303,6.08589805 30.6875593,5.63418163 30.9062143,5.23384829 C31.1051382,4.88577728 31.3989587,4.60204316 31.7530714,4.41606236 C32.1174132,4.22555974 32.5230567,4.12862969 32.9337857,4.13392622 C33.6430246,4.12578136 34.3239617,4.41294506 34.8147857,4.92717856 L34.2447857,5.82265415 Z M7.61357143,8.62357095 C7.72664166,8.94645848 7.78044151,9.28727011 7.77235714,9.62944764 C7.77770764,9.97010022 7.7239772,10.3090885 7.61357143,10.6312354 C7.5254504,10.8957573 7.36622868,11.1306637 7.1535,11.3099977 C6.9541177,11.4708228 6.7048236,11.5562076 6.44914286,11.5512446 C6.19775617,11.5569237 5.95250884,11.4728914 5.757,11.3140866 C5.54506136,11.1398974 5.38456343,10.910841 5.29285714,10.65168 C5.18156795,10.3226963 5.12784568,9.9768425 5.13407143,9.62944764 C5.12687646,9.28832447 5.18207643,8.94877133 5.29692857,8.62765988 C5.38589675,8.37264097 5.54378936,8.14752634 5.75292857,7.97752007 C5.95526964,7.82866485 6.20278373,7.75495857 6.45321429,7.76898466 C6.70639775,7.76299719 6.95431252,7.84215282 7.15757143,7.99387579 C7.3650652,8.15696282 7.52301295,8.37507451 7.61357143,8.62357095 Z" id="oclif-logo" fill-rule="nonzero"></path>
<path d="M57,15.3335045 C57,15.7015998 56.702877,16 56.3363571,16 L45.2457857,16 C44.8792659,16 44.5821429,15.7015998 44.5821429,15.3335045 L44.5821429,14.6833412 C44.5821429,14.3152459 44.8792659,14.0168457 45.2457857,14.0168457 L56.3404286,14.0168457 C56.7053574,14.0190942 57.0000069,14.3168368 57,14.6833412 L57,15.3335045 Z">
<animate attributeName="fill" values="#fff;#fff;#394351;#394351;#fff;" dur="1.5s" repeatCount="2"></animate>
</path>
</svg>

<svg class="fill-white" xmlns="http://www.w3.org/2000/svg" width="57" height="16" viewBox="0 0 57 16"><path d="M35.356.409a1.385 1.385 0 0 0-.99-.409H1.389C.622 0 0 .624 0 1.394v13.212C0 15.376.622 16 1.388 16h32.979c.37.002.727-.145.99-.409l6.252-6.588c.53-.542.53-1.447 0-1.99L35.356.41zM24.954 4.408a.84.84 0 0 1 .61-.23.874.874 0 0 1 .725.41.73.73 0 0 1 .118.409.726.726 0 0 1-.118.409.873.873 0 0 1-.317.294.864.864 0 0 1-1.157-.294.75.75 0 0 1-.114-.41.774.774 0 0 1 .253-.588zm-16.16 6.796a2.698 2.698 0 0 1-.973 1.063 2.618 2.618 0 0 1-2.74 0 2.699 2.699 0 0 1-.969-1.063 3.381 3.381 0 0 1-.354-1.57 3.172 3.172 0 0 1 .362-1.51c.227-.438.566-.81.981-1.075a2.531 2.531 0 0 1 2.708 0 2.8 2.8 0 0 1 .981 1.076c.244.465.369.983.363 1.509a3.385 3.385 0 0 1-.359 1.57zM14.65 8.63c-.338-.501-.905-.85-1.53-.808a1.29 1.29 0 0 0-.758.237 1.634 1.634 0 0 0-.554.642 2.38 2.38 0 0 0-.2 1.002c0 .32.068.637.2.928.112.255.294.472.525.626.23.148.497.225.77.22.209-.01.36-.026.453-.048.075-.018.177-.062.304-.131a2.04 2.04 0 0 0 .692-.577l.79.916a2.9 2.9 0 0 1-1.03.765c-.386.166-.802.25-1.221.245a2.84 2.84 0 0 1-1.466-.38 2.698 2.698 0 0 1-1.018-1.067 3.2 3.2 0 0 1-.366-1.534 3.242 3.242 0 0 1 .366-1.537 2.76 2.76 0 0 1 1.018-1.088 2.806 2.806 0 0 1 1.49-.409c.453-.003.9.095 1.311.286.39.178.723.461.96.818l-.736.894zm6.787 3.841h-4.479v-1.059h1.556V5.316h-1.47V4.24h2.85v7.172h1.543v1.06zm6.132 0h-3.954v-1.096h1.364v-3.5h-1.307V6.78h2.655v4.596h1.221l.02 1.096zm6.677-6.648a2.85 2.85 0 0 0-.627-.462 1.33 1.33 0 0 0-.582-.123 1.04 1.04 0 0 0-.843.335 1.49 1.49 0 0 0-.285.99v.233h1.738v1.083h-1.73v4.592h-1.323V7.863H29.37V6.779h1.222v-.237a2.573 2.573 0 0 1 .313-1.308 2.1 2.1 0 0 1 .847-.818c.364-.19.77-.287 1.18-.282a2.56 2.56 0 0 1 1.882.793l-.57.896zm-26.631 2.8c.113.323.166.664.158 1.006a2.94 2.94 0 0 1-.158 1.002c-.089.265-.248.5-.46.679-.2.16-.45.246-.705.241a1.06 1.06 0 0 1-.692-.237 1.509 1.509 0 0 1-.464-.662 3.021 3.021 0 0 1-.159-1.023 2.8 2.8 0 0 1 .163-1.001c.089-.255.247-.48.456-.65a1.08 1.08 0 0 1 .7-.209c.253-.006.501.073.705.225.207.163.365.381.456.63z"/><path d="M57 15.334a.665.665 0 0 1-.664.666h-11.09a.665.665 0 0 1-.664-.666v-.65c0-.369.297-.667.664-.667H56.34c.365.002.66.3.66.666v.65z"><animate attributeName="fill" values="#fff;#fff;#394351;#394351;#fff;" dur="1.5s" repeatCount="2"/></path></svg>
